X:1
T:Cristo al morir tendea
T:Cristo al morir tendea
T:Anonymous
T:Dunque diletti miei, sa e dura croce in  man d'iniqui e rei, dà per salvarvi, il sangue, l'alma e l'core, lascieretelo voi per altro amore? 
T:Ben sò che fuggirete di gran timor, e alfin vi nasconderete. Ed Ei pur come Agnel che tace e more, svenerassi per voi d'immenso amore. 
T:by IMSLP - Public Domain
T:by IMSLP - Public Domain
C:Anonymous
Z:by IMSLP - Public Domain
%%score [ 1 2 3 ]
L:1/8
Q:1/4=92
M:4/2
K:C
V:1 treble nm="Soprano I"
V:2 treble nm="Soprano II"
V:3 bass nm="Baritone"
V:1
!p!"^Andante lento" c8 A4 z2 A2 |!<(! c2 d2 e2!<)! f2!>(! e4 A4!>)! | z4 z4 z4 e4 | %3
w: Cri\- sto, Cri\-|sto almo\- rir ten\- de\- a,|Cri\-|
 c3 c c2 B2 A4 !breath!A2 B2 | c6 d2 e3 e e2 d2 |!<(! ^c2!<)! d2!>(! d2 c2 d8!>)! |: %6
w: stoal mo\- rir ten\- de- a, ed|ai più ca\- ri suoi Ma\-|ria di\- ce _ a:|
 z4 z4 G2 G G G2 G2 | c4 B4 A2 A2 (e4- | e2 dc B4) A4 z4 | z4 z4!p!"^poi cresc." e2 d2 e2 d c | %10
w: Or, se per trar\- vial|Ciel dà l'alma eil co\-|* * * * re,|la\- scie\- re\- te\- lo|
 !breath!B4!<(! c2 B2 c2 B A ^G4 | z2 d4 e2!<)! f2 e d !breath!c2 e f | %12
w: voi, la\- scie\- re\- te\- lo voi,|la\- scie\- re\- te\- lo voi, la\- scie\-|
 !>!g6 f e!>(!"_dim." !breath!d4 d4!>)! |"^rall." e4 f4"_dim."!>(! e4 (d4- | %14
w: re\- te\- lo voi, per|al\- tro a\- mo|
 d4 ^c4)!>)! !fermata!d8 :| %15
w: _ _ re?|
V:2
 z16 |!p! c8 A4 z2 A2 |!<(! c2 d2 e2!<)! f2!>(! e4 A4!>)! | z4 e4 c3 c c2 B2 | %4
w: |Cri\- sto, Cri\-|sto almo\- rir ten\- de\- a,|Cri\- stoal mo\- rir ten\-|
 A2 A A A2 B2 c3 c e2 d2 |!<(! e2!<)! f2!>(! e4!>)! d8 |: B2 B B B2 B2 c4 d4 | e6 (d2 c B c B A4- | %8
w: de\- a, ed ai più ca\- ri suoi Ma\-|ria di\- ce a:|Or, se per trar\- vial Ciel dà|l'al\- maeil co * * * *|
 A4 ^G4) !breath!A4!p! c2 B2 | c2 B A ^G4 z4 z4 | z4!p!"^poi cresc." e2"^cresc." d2 e2 d c B4- | %11
w: * * re, la\- scie\-|re\- te\- lo voi,|la\- scie\- re\- te\- lo voi,|
 !breath!B4!<(! B2 c2 d2 c B!<)! !breath!A2 c d | !>!e2 d c !breath!B2 d e !>!f6 e d | %13
w: * la\- scie\- re\- te\- lo voi, la\- scie\-|re\- te\- lo voi, la\- scie\- re\- te\- lo|
"^rall." !breath!^c4 d4 e4 f4 |!>(!"_dim." e8!>)! !fermata!d8 :| %15
w: voi, per al\- troa\-|mo\- re?|
V:3
 z16 | z4 z4!p! A,8 |!<(! A,2 B,2 C2!<)! D2!>(! C4!>)! C4 | %3
w: |Cri\-|sto almo\- rir ten\- de\- a,|
 z2 A,2 A,2 ^G,2 (A, =G, F, E, F,2) G,2 | A,2 A, A, A,2 B,2 C3 C C2 B,2 | %5
w: Cri\- sto al mo _ _ _ rir ten\-|de\- a, ed ai più ca\- ri suoi Ma\-|
!<(! A,2!<)! D,2!>(! A,4!>)! D,8 |: G,2 G, G, G,2 G,2 C4 B,4 | A,6 ^G,4 (A,4 =G, F, | %8
w: ria di\- ce a:|Or, se per trar\- vial Ciel dà|l'al\- maeil co * *|
 E,8) !breath!A,4!p! A,2 ^G,2 | %9
w: |
 A,2 !courtesy!=G, F, !breath!E,4!p!"^poi cresc.""^cresc." C2 B,2 C2 B, A, | ^G,4 z4 z4 E,4- | %11
w: * * * * la\- scie\- re\- te\- lo|voi, la\-|
 E,2!<(! F,2 G,2 F, E, !breath!D,2 A, B,!<)! C4- | %12
w: * scie\- re\- te\- lo voi, la\- scie\- re\-|
 C2 B, A, !breath!G,2 B, !breath!C !>!A,6!>(! C B,!>)! |"^rall." !breath!A,4 D4 ^C4 D4 | %14
w: * te\- lo voi, la\- scie\- re\- te\- lo|voi, per al\- troa\-|
!>(!"_dim." A,8!>)! !fermata!D,8 :| %15
w: mo\- re?|

